X:1
T:The Drunkard's Hell
M:3/4
L:1/8
K:F
 CCF| F3 AF A,| C3 CC E| G3 GE C| F3 FA A| c3| GAc| A3 CE A| G3 GE C|\
 F3||
